qml/icons/route.svg

<?xml version="1.0" encoding="UTF-8" standalone="no"?>
<!-- Created with Inkscape (http://www.inkscape.org/) -->

<svg
   xmlns:dc="http://purl.org/dc/elements/1.1/"
   xmlns:cc="http://creativecommons.org/ns#"
   xmlns:rdf="http://www.w3.org/1999/02/22-rdf-syntax-ns#"
   xmlns:svg="http://www.w3.org/2000/svg"
   xmlns="http://www.w3.org/2000/svg"
   xmlns:sodipodi="http://sodipodi.sourceforge.net/DTD/sodipodi-0.dtd"
   xmlns:inkscape="http://www.inkscape.org/namespaces/inkscape"
   width="64"
   height="64"
   id="svg1901"
   sodipodi:version="0.32"
   inkscape:version="0.92.4 5da689c313, 2019-01-14"
   sodipodi:docname="route.svg"
   version="1.1"
   inkscape:export-xdpi="132"
   inkscape:export-ydpi="132"
   inkscape:export-filename="/home/mo/Dokumente/Pure Maps/allover/route_to_N2.png">
  <defs
     id="defs1903">
    <inkscape:path-effect
       effect="skeletal"
       id="path-effect1141"
       is_visible="true"
       pattern="m 34.689574,969.36218 h 5.555213 v 5.55521 h -5.555213 z"
       copytype="single_stretched"
       prop_scale="0.19650566"
       scale_y_rel="false"
       spacing="0"
       normal_offset="0"
       tang_offset="0"
       prop_units="false"
       vertical_pattern="false"
       fuse_tolerance="0" />
    <inkscape:path-effect
       effect="simplify"
       id="path-effect1133"
       is_visible="true"
       steps="1"
       threshold="0.000408163"
       smooth_angles="360"
       helper_size="0"
       simplify_individual_paths="false"
       simplify_just_coalesce="false"
       simplifyindividualpaths="false"
       simplifyJustCoalesce="false" />
    <inkscape:path-effect
       effect="bend_path"
       id="path-effect1097"
       is_visible="true"
       bendpath="m 30.649422,981.81624 c 0.312594,0.74365 1.174823,1.05751 1.483128,2.00628 0.647207,0.92962 1.711419,1.49782 2.263486,2.51236 0.717765,1.07184 1.270794,2.29192 2.304098,3.1099 0.331187,1.0145 1.224004,1.63822 1.982144,2.34029 0.691547,0.76838 0.936689,1.9828 1.950857,2.46065 0.779493,0.30467 1.335918,0.95064 1.670423,1.70203 0.511807,0.90176 1.09316,1.77004 1.752947,2.56368 0.374467,0.66001 0.819506,1.26401 1.374905,1.76257 0.438183,0.7554 0.931309,1.4647 1.445652,2.1613 0.177785,0.5193 0.479365,0.8656 0.690506,1.1809"
       prop_scale="1"
       scale_y_rel="false"
       vertical="false" />
    <inkscape:path-effect
       effect="simplify"
       id="path-effect1095"
       is_visible="true"
       steps="1"
       threshold="0.000408163"
       smooth_angles="360"
       helper_size="0"
       simplify_individual_paths="false"
       simplify_just_coalesce="false"
       simplifyindividualpaths="false"
       simplifyJustCoalesce="false" />
    <inkscape:path-effect
       effect="simplify"
       id="path-effect1046"
       is_visible="true"
       steps="1"
       threshold="0.000408163"
       smooth_angles="360"
       helper_size="0"
       simplify_individual_paths="false"
       simplify_just_coalesce="false"
       simplifyindividualpaths="false"
       simplifyJustCoalesce="false" />
    <inkscape:path-effect
       effect="simplify"
       id="path-effect1042"
       is_visible="true"
       steps="1"
       threshold="0.000408163"
       smooth_angles="360"
       helper_size="0"
       simplify_individual_paths="false"
       simplify_just_coalesce="false"
       simplifyindividualpaths="false"
       simplifyJustCoalesce="false" />
    <inkscape:path-effect
       effect="powerstroke"
       id="path-effect943"
       is_visible="true"
       offset_points="0.013484154,0.39250367"
       sort_points="true"
       interpolator_type="CubicBezierJohan"
       interpolator_beta="0.2"
       start_linecap_type="zerowidth"
       linejoin_type="extrp_arc"
       miter_limit="4"
       end_linecap_type="zerowidth" />
  </defs>
  <sodipodi:namedview
     id="base"
     pagecolor="#ffffff"
     bordercolor="#666666"
     borderopacity="1.0"
     inkscape:pageopacity="0.0"
     inkscape:pageshadow="2"
     inkscape:zoom="7.58125"
     inkscape:cx="32.699818"
     inkscape:cy="14.80705"
     inkscape:document-units="px"
     inkscape:current-layer="layer1"
     inkscape:window-width="2880"
     inkscape:window-height="1506"
     inkscape:window-x="0"
     inkscape:window-y="0"
     showgrid="true"
     inkscape:window-maximized="1"
     inkscape:showpageshadow="false"
     inkscape:document-rotation="0"
     fit-margin-top="0"
     fit-margin-left="0"
     fit-margin-right="0"
     fit-margin-bottom="0"
     showguides="true"
     inkscape:guide-bbox="true"
     guidetolerance="5"
     objecttolerance="5"
     gridtolerance="15">
    <inkscape:grid
       type="xygrid"
       id="grid10137"
       empspacing="4"
       visible="true"
       enabled="true"
       snapvisiblegridlinesonly="true"
       originx="-24.000001"
       originy="-24.000021" />
  </sodipodi:namedview>
  <metadata
     id="metadata1906">
    <rdf:RDF>
      <cc:Work
         rdf:about="">
        <dc:format>image/svg+xml</dc:format>
        <dc:type
           rdf:resource="http://purl.org/dc/dcmitype/StillImage" />
        <dc:title />
      </cc:Work>
    </rdf:RDF>
  </metadata>
  <g
     inkscape:label="Taso 1"
     inkscape:groupmode="layer"
     id="layer1"
     transform="translate(-24.000001,-964.36218)">
    <path
       sodipodi:nodetypes="cssscsssss"
       style="fill:#000000;fill-opacity:1;stroke:#ffffff;stroke-width:0;stroke-linecap:square;stroke-miterlimit:4;stroke-dasharray:none;stroke-opacity:0"
       d="m 36.998454,995.87956 c -7.579492,8.12084 -12.993414,12.31404 -12.993414,19.49014 0,7.176 5.817349,12.9934 12.993414,12.9934 7.176064,0 12.993413,-5.8174 12.993413,-12.9934 0,-7.1761 -5.413922,-11.3693 -12.993413,-19.49014 z m 0,10.55714 c 4.933544,0 8.932972,3.9994 8.932972,8.933 0,4.9335 -3.999428,8.9329 -8.932972,8.9329 -4.933545,0 -8.932972,-3.9994 -8.932972,-8.9329 0,-4.9336 3.999427,-8.933 8.932972,-8.933 z"
       id="path10143"
       inkscape:connector-curvature="0" />
    <circle
       r="4.87253"
       cy="1015.3698"
       cx="36.998455"
       style="fill:#000000;fill-opacity:1;stroke:#ffffff;stroke-width:0;stroke-linecap:square;stroke-miterlimit:4;stroke-dasharray:none;stroke-opacity:0"
       id="path10139" />
    <path
       style="fill:#000000;fill-opacity:1;stroke:none;stroke-width:1.5666858"
       d="M 55 0 A 8.9999237 8.9999228 0 0 0 46 9 A 8.9999237 8.9999228 0 0 0 55 18 A 8.9999237 8.9999228 0 0 0 64 9 A 8.9999237 8.9999228 0 0 0 55 0 z "
       id="ellipse870"
       transform="translate(24.000001,964.36218)" />
    <path
       style="opacity:1;fill:#000000;fill-opacity:0.36000001;stroke:none;stroke-width:0;stroke-linecap:butt;stroke-linejoin:miter;stroke-miterlimit:4;stroke-dasharray:none;stroke-opacity:1;paint-order:stroke markers fill"
       d="M 23.5 0 A 15.5 15.5 0 0 0 8 15.5 L 7.9980469 15.5 L 7.9980469 39 L 17.998047 39 L 17.998047 15.5 L 18 15.5 A 5.5 5.5 0 0 1 23.5 10 A 5.5 5.5 0 0 1 29 15.5 L 29 48.5 A 15.5 15.5 0 0 0 44.5 64 A 15.5 15.5 0 0 0 60 48.5 L 60 16.011719 L 50 16.011719 L 50 48.5 A 5.5 5.5 0 0 1 44.5 54 A 5.5 5.5 0 0 1 39 48.5 L 39 15.5 A 15.5 15.5 0 0 0 23.5 0 z "
       id="rect890"
       transform="translate(24.000001,964.36218)" />
  </g>
</svg>

<svg width="64" height="64" xmlns="http://www.w3.org/2000/svg"><path style="color:#000;fill:#000;stroke-width:0;stroke-linecap:square;-inkscape-stroke:none" d="M36.998 995.88c-7.579 8.12-12.993 12.314-12.993 19.49 0 7.176 5.817 12.993 12.993 12.993 7.177 0 12.994-5.817 12.994-12.993s-5.414-11.37-12.994-19.49zm0 10.557a8.933 8.933 0 1 1 0 17.866 8.933 8.933 0 0 1 0-17.866z" transform="translate(-24 -964.362)"/><path style="color:#000;fill:#fff;fill-opacity:0;stroke-linecap:square;-inkscape-stroke:none" d="M36.998 995.88c-7.579 8.12-12.993 12.314-12.993 19.49 0 7.176 5.817 12.993 12.993 12.993 7.177 0 12.994-5.817 12.994-12.993s-5.414-11.37-12.994-19.49zm0 10.557a8.933 8.933 0 1 1 0 17.866 8.933 8.933 0 0 1 0-17.866z" fill="none" transform="translate(-24 -964.362)"/><path style="color:#000;fill:#000;stroke-width:0;stroke-linecap:square;-inkscape-stroke:none" d="M41.871 1015.37a4.873 4.873 0 0 1-4.873 4.872 4.873 4.873 0 0 1-4.872-4.872 4.873 4.873 0 0 1 4.872-4.873 4.873 4.873 0 0 1 4.873 4.873z" transform="translate(-24 -964.362)"/><path style="color:#000;fill:#fff;fill-opacity:0;stroke-linecap:square;-inkscape-stroke:none" d="M41.871 1015.37a4.873 4.873 0 1 1-9.745 0 4.873 4.873 0 0 1 9.745 0z" fill="none" transform="translate(-24 -964.362)"/><path style="fill:#000;fill-opacity:1;stroke:none;stroke-width:1.5666858" d="M55 0a9 9 0 0 0-9 9 9 9 0 0 0 9 9 9 9 0 0 0 9-9 9 9 0 0 0-9-9z"/><path style="opacity:1;fill:#000;fill-opacity:.36000001;stroke:none;stroke-width:0;stroke-linecap:butt;stroke-linejoin:miter;stroke-miterlimit:4;stroke-dasharray:none;stroke-opacity:1;paint-order:stroke markers fill" d="M23.5 0A15.5 15.5 0 0 0 8 15.5h-.002V39h10V15.5H18a5.5 5.5 0 0 1 5.5-5.5 5.5 5.5 0 0 1 5.5 5.5v33A15.5 15.5 0 0 0 44.5 64 15.5 15.5 0 0 0 60 48.5V16.012H50V48.5a5.5 5.5 0 0 1-5.5 5.5 5.5 5.5 0 0 1-5.5-5.5v-33A15.5 15.5 0 0 0 23.5 0z"/></svg>
